svgs/sharp-solid/screencast.svg

<svg xmlns="http://www.w3.org/2000/svg" viewBox="0 0 576 512"><!--! Font Awesome Pro 6.6.0 by @fontawesome - https://fontawesome.com License - https://fontawesome.com/license (Commercial License) Copyright 2024 Fonticons, Inc. --><path d="M512 96L64 96l0 103.1C43.4 194.5 22 192 0 192L0 96 0 32l64 0 448 0 64 0 0 64 0 320 0 64-64 0-224 0c0-22-2.5-43.4-7.1-64L512 416l0-320zM0 272l0-48c141.4 0 256 114.6 256 256l-48 0c0-114.9-93.1-208-208-208zM32 416a32 32 0 1 1 0 64 32 32 0 1 1 0-64zm80 64c0-61.9-50.1-112-112-112l0-48c88.4 0 160 71.6 160 160l-48 0z"/></svg>

<svg xmlns="http://www.w3.org/2000/svg" viewBox="0 0 576 512"><!--! Font Awesome Pro 6.5.2 by @fontawesome - https://fontawesome.com License - https://fontawesome.com/license (Commercial License) Copyright 2024 Fonticons, Inc. --><path d="M512 96H64V199.1C43.4 194.5 22 192 0 192V96 32H64 512h64V96 416v64H512 288c0-22-2.5-43.4-7.1-64H512V96zM0 272V224c141.4 0 256 114.6 256 256H208c0-114.9-93.1-208-208-208zM32 416a32 32 0 1 1 0 64 32 32 0 1 1 0-64zm80 64c0-61.9-50.1-112-112-112V320c88.4 0 160 71.6 160 160H112z"/></svg>
